symbols/web/punch_clock/materialsymbolssharp/punch_clock_wght600_40px.svg

<svg xmlns="http://www.w3.org/2000/svg" height="40" width="40"><path d="M4.125 37.542V9.083h5.708V.75h20.334v8.333h5.75v28.459ZM13.5 9.083h13V4.458h-13ZM7.792 33.875h24.416V12.792H7.792ZM20 31.833q-3.5 0-6-2.479t-2.5-6.021q0-3.5 2.479-6t6.021-2.5q3.5 0 6 2.479 2.5 2.48 2.5 6.021 0 3.5-2.479 6T20 31.833Zm0-2.541q2.458 0 4.208-1.75t1.75-4.209q0-2.458-1.75-4.208T20 17.375q-2.458 0-4.208 1.75t-1.75 4.208q0 2.459 1.75 4.209 1.75 1.75 4.208 1.75Zm1.917-2.667L19 23.708V19h2v3.958l2.292 2.292ZM20 23.333Z"/></svg>

<svg xmlns="http://www.w3.org/2000/svg" height="40" width="40"><path d="M4.125 37.542V9.083H9.833V0.75H30.167V9.083H35.917V37.542ZM13.5 9.083H26.5V4.458H13.5ZM7.792 33.875H32.208V12.792H7.792ZM20 31.833Q16.5 31.833 14 29.354Q11.5 26.875 11.5 23.333Q11.5 19.833 13.979 17.333Q16.458 14.833 20 14.833Q23.5 14.833 26 17.312Q28.5 19.792 28.5 23.333Q28.5 26.833 26.021 29.333Q23.542 31.833 20 31.833ZM20 29.292Q22.458 29.292 24.208 27.542Q25.958 25.792 25.958 23.333Q25.958 20.875 24.208 19.125Q22.458 17.375 20 17.375Q17.542 17.375 15.792 19.125Q14.042 20.875 14.042 23.333Q14.042 25.792 15.792 27.542Q17.542 29.292 20 29.292ZM21.917 26.625 19 23.708V19H21V22.958L23.292 25.25ZM20 23.333Z"/></svg>
